X: 1807
T: Pine Mt Lancers Fig 3
B: australian traditional tunes wiki
M:6/8
L:1/8
R: Jig
Q: 3/8=100
K:G
V:1 
D|:"G"GFG G2A|B3-B2A|BAB c2B|"D7"A3-A2D|
"D7"A2G A2B|c3- c2d|e2d c2A|1"G"B3-B2 D:|2"G"G3-G2F||
"Em"E2F "B7"G2 A|"Em"B3- B2G|E2F "B7"G2 A|"Em"B3- B2A|
"B7"BAB B2A|BAB B2A|BAB A2B|"D7"c3- c2D|
"G"GFG G2A|B3-B2A|BAB c2B|"D7"A3-A2D|
"D7"A2G A2B|c3- c2d|"C"e2d "D7"c2A|"G"G3-G2||
% abcbook-tune_id 6342d53a9b2b47f0d87c12f1


% abcbook-boost 0
% abcbook-tablature 
% abcbook-transpose 
% abcbook-lastupdated 1665324385143
% abcbook-soundfonts 
% abcbook-repeats 1
% NFF Book 2018

